X:96
C:Page 47
T:Bang Upp. MBe.96
S:Matthew Betham MS, Towcett Cumbria, 1815
O:England;Cumbria;Towcett
Z:VMP – Hugh Taylor, 2012
M:6/8
L:1/8
Q:3/8=120
R:.Jig
N:NB-These two notes d notes were written as a crotchet and a dotted crotchet. I have swapped them round.
K:D
A|d2 d f2 f|a2 a f2 d|g2 e f2 d|cde ABc|
d2 d f2 f|a2 a f2 d|g2 e f2 d|cBA d2:|
|:A|F2 A E2 A|F2 A d2 c|B2 d A2 d|G2 e cBA|
F2 A E2 A|F2 A d2 c|Bcd ABc|”^NB”d3 d2:|
|:A|f2 e d2 c|B2 A G2 F|G2 A B2 e|dcB A2 A|
f2 e d2 c|B2 A G2 F|G2 B A2 F|GFE D3:|

